svg/Pictogram/pictograms-hazard_signs-comburant.svg

<?xml version="1.0" encoding="UTF-8" standalone="no"?>
<!-- Created with Inkscape (http://www.inkscape.org/) --><svg height="155.93201" id="svg2" inkscape:export-filename="/home/yves/Bureau/yves_guillou_comburant.png" inkscape:export-xdpi="196" inkscape:export-ydpi="196" inkscape:output_extension="org.inkscape.output.svg.inkscape" inkscape:version="0.45+devel" sodipodi:docname="yves_guillou_comburant.svg" sodipodi:version="0.32" version="1.0" width="155.93201" xmlns="http://www.w3.org/2000/svg" xmlns:cc="http://creativecommons.org/ns#" xmlns:dc="http://purl.org/dc/elements/1.1/" xmlns:inkscape="http://www.inkscape.org/namespaces/inkscape" xmlns:rdf="http://www.w3.org/1999/02/22-rdf-syntax-ns#" xmlns:sodipodi="http://sodipodi.sourceforge.net/DTD/sodipodi-0.dtd" xmlns:svg="http://www.w3.org/2000/svg">
  <metadata>
    <rdf:RDF xmlns:cc="http://web.resource.org/cc/" xmlns:dc="http://purl.org/dc/elements/1.1/" xmlns:rdf="http://www.w3.org/1999/02/22-rdf-syntax-ns#">
      <cc:Work rdf:about="">
        <dc:title></dc:title>
        <dc:description></dc:description>
        <dc:subject>
          <rdf:Bag>
            <rdf:li>unsorted</rdf:li>
          </rdf:Bag>
        </dc:subject>
        <dc:publisher>
          <cc:Agent rdf:about="http://www.openclipart.org/">
            <dc:title>Source: Open Clip Art Library, Source: Open Clip Art Library, Source: Open Clip Art Library</dc:title>
          </cc:Agent>
        </dc:publisher>
        <dc:creator>
          <cc:Agent>
            <dc:title>yves guillou</dc:title>
          </cc:Agent>
        </dc:creator>
        <dc:rights>
          <cc:Agent>
            <dc:title>yves guillou</dc:title>
          </cc:Agent>
        </dc:rights>
        <dc:date></dc:date>
        <dc:format>image/svg+xml</dc:format>
        <dc:type rdf:resource="http://purl.org/dc/dcmitype/StillImage"/>
        <cc:license rdf:resource="http://en.wikipedia.org/wiki/Public_domain"/>
        <dc:language>French</dc:language>
      </cc:Work>
    </rdf:RDF>
  </metadata>
  <defs id="defs4">
    <inkscape:perspective id="perspective74" inkscape:persp3d-origin="300 : 400 : 1" inkscape:vp_x="-50 : 600 : 1" inkscape:vp_y="0 : 1000 : 0" inkscape:vp_z="700 : 600 : 1" sodipodi:type="inkscape:persp3d"/>
    <inkscape:perspective id="perspective234" inkscape:persp3d-origin="300 : 400 : 1" inkscape:vp_x="-50 : 600 : 1" inkscape:vp_y="0 : 1000 : 0" inkscape:vp_z="700 : 600 : 1" sodipodi:type="inkscape:persp3d"/>
    <inkscape:perspective id="perspective233" inkscape:persp3d-origin="300 : 400 : 1" inkscape:vp_x="-50 : 600 : 1" inkscape:vp_y="0 : 1000 : 0" inkscape:vp_z="700 : 600 : 1" sodipodi:type="inkscape:persp3d"/>
    <inkscape:perspective id="perspective10" inkscape:persp3d-origin="300 : 400 : 1" inkscape:vp_x="-50 : 600 : 1" inkscape:vp_y="0 : 1000 : 0" inkscape:vp_z="700 : 600 : 1" sodipodi:type="inkscape:persp3d"/>
    <marker id="ArrowStart" markerHeight="3" markerUnits="strokeWidth" markerWidth="4" orient="auto" refX="10" refY="5" viewBox="0 0 10 10">
      <path d="M 10,0 L 0,5 L 10,10 L 10,0 z" id="path1463"/>
    </marker>
    <marker id="ArrowEnd" markerHeight="3" markerUnits="strokeWidth" markerWidth="4" orient="auto" refX="0" refY="5" viewBox="0 0 10 10">
      <path d="M 0,0 L 10,5 L 0,10 L 0,0 z" id="path1461"/>
    </marker>
    <inkscape:perspective id="perspective2379" inkscape:persp3d-origin="300 : 400 : 1" inkscape:vp_x="-50 : 600 : 1" inkscape:vp_y="0 : 1000 : 0" inkscape:vp_z="700 : 600 : 1" sodipodi:type="inkscape:persp3d"/>
    <inkscape:perspective id="perspective2416" inkscape:persp3d-origin="300 : 400 : 1" inkscape:vp_x="-50 : 600 : 1" inkscape:vp_y="0 : 1000 : 0" inkscape:vp_z="700 : 600 : 1" sodipodi:type="inkscape:persp3d"/>
    <marker id="marker2474" markerHeight="3" markerUnits="strokeWidth" markerWidth="4" orient="auto" refX="10" refY="5" viewBox="0 0 10 10">
      <path d="M 10,0 L 0,5 L 10,10 L 10,0 z" id="path6"/>
    </marker>
    <marker id="marker2471" markerHeight="3" markerUnits="strokeWidth" markerWidth="4" orient="auto" refX="0" refY="5" viewBox="0 0 10 10">
      <path d="M 0,0 L 10,5 L 0,10 L 0,0 z" id="path4"/>
    </marker>
    <inkscape:perspective id="perspective2468" inkscape:persp3d-origin="300 : 400 : 1" inkscape:vp_x="-50 : 600 : 1" inkscape:vp_y="0 : 1000 : 0" inkscape:vp_z="700 : 600 : 1" sodipodi:type="inkscape:persp3d"/>
    <marker id="marker2553" markerHeight="3" markerUnits="strokeWidth" markerWidth="4" orient="auto" refX="10" refY="5" viewBox="0 0 10 10">
      <path d="M 10,0 L 0,5 L 10,10 L 10,0 z" id="path2555"/>
    </marker>
    <marker id="marker2549" markerHeight="3" markerUnits="strokeWidth" markerWidth="4" orient="auto" refX="0" refY="5" viewBox="0 0 10 10">
      <path d="M 0,0 L 10,5 L 0,10 L 0,0 z" id="path2551"/>
    </marker>
    <inkscape:perspective id="perspective2546" inkscape:persp3d-origin="300 : 400 : 1" inkscape:vp_x="-50 : 600 : 1" inkscape:vp_y="0 : 1000 : 0" inkscape:vp_z="700 : 600 : 1" sodipodi:type="inkscape:persp3d"/>
    <marker id="marker2657" markerHeight="3" markerUnits="strokeWidth" markerWidth="4" orient="auto" refX="10" refY="5" viewBox="0 0 10 10">
      <path d="M 10,0 L 0,5 L 10,10 L 10,0 z" id="path2659"/>
    </marker>
    <marker id="marker2653" markerHeight="3" markerUnits="strokeWidth" markerWidth="4" orient="auto" refX="0" refY="5" viewBox="0 0 10 10">
      <path d="M 0,0 L 10,5 L 0,10 L 0,0 z" id="path2655"/>
    </marker>
    <inkscape:perspective id="perspective2650" inkscape:persp3d-origin="300 : 400 : 1" inkscape:vp_x="-50 : 600 : 1" inkscape:vp_y="0 : 1000 : 0" inkscape:vp_z="700 : 600 : 1" sodipodi:type="inkscape:persp3d"/>
    <marker id="marker2751" markerHeight="3" markerUnits="strokeWidth" markerWidth="4" orient="auto" refX="10" refY="5" viewBox="0 0 10 10">
      <path d="M 10,0 L 0,5 L 10,10 L 10,0 z" id="path2753"/>
    </marker>
    <marker id="marker2747" markerHeight="3" markerUnits="strokeWidth" markerWidth="4" orient="auto" refX="0" refY="5" viewBox="0 0 10 10">
      <path d="M 0,0 L 10,5 L 0,10 L 0,0 z" id="path2749"/>
    </marker>
    <inkscape:perspective id="perspective2744" inkscape:persp3d-origin="300 : 400 : 1" inkscape:vp_x="-50 : 600 : 1" inkscape:vp_y="0 : 1000 : 0" inkscape:vp_z="700 : 600 : 1" sodipodi:type="inkscape:persp3d"/>
    <marker id="marker2821" markerHeight="3" markerUnits="strokeWidth" markerWidth="4" orient="auto" refX="10" refY="5" viewBox="0 0 10 10">
      <path d="M 10,0 L 0,5 L 10,10 L 10,0 z" id="path2823"/>
    </marker>
    <marker id="marker2817" markerHeight="3" markerUnits="strokeWidth" markerWidth="4" orient="auto" refX="0" refY="5" viewBox="0 0 10 10">
      <path d="M 0,0 L 10,5 L 0,10 L 0,0 z" id="path2819"/>
    </marker>
    <inkscape:perspective id="perspective2814" inkscape:persp3d-origin="300 : 400 : 1" inkscape:vp_x="-50 : 600 : 1" inkscape:vp_y="0 : 1000 : 0" inkscape:vp_z="700 : 600 : 1" sodipodi:type="inkscape:persp3d"/>
    <inkscape:perspective id="perspective2868" inkscape:persp3d-origin="300 : 400 : 1" inkscape:vp_x="-50 : 600 : 1" inkscape:vp_y="0 : 1000 : 0" inkscape:vp_z="700 : 600 : 1" sodipodi:type="inkscape:persp3d"/>
    <marker id="marker2908" markerHeight="3" markerUnits="strokeWidth" markerWidth="4" orient="auto" refX="10" refY="5" viewBox="0 0 10 10">
      <path d="M 10,0 L 0,5 L 10,10 L 10,0 z" id="path1608"/>
    </marker>
    <marker id="marker2905" markerHeight="3" markerUnits="strokeWidth" markerWidth="4" orient="auto" refX="0" refY="5" viewBox="0 0 10 10">
      <path d="M 0,0 L 10,5 L 0,10 L 0,0 z" id="path1606"/>
    </marker>
    <inkscape:perspective id="perspective2902" inkscape:persp3d-origin="300 : 400 : 1" inkscape:vp_x="-50 : 600 : 1" inkscape:vp_y="0 : 1000 : 0" inkscape:vp_z="700 : 600 : 1" sodipodi:type="inkscape:persp3d"/>
    <marker id="marker2974" markerHeight="3" markerUnits="strokeWidth" markerWidth="4" orient="auto" refX="10" refY="5" viewBox="0 0 10 10">
      <path d="M 10,0 L 0,5 L 10,10 L 10,0 z" id="path2976"/>
    </marker>
    <marker id="marker2970" markerHeight="3" markerUnits="strokeWidth" markerWidth="4" orient="auto" refX="0" refY="5" viewBox="0 0 10 10">
      <path d="M 0,0 L 10,5 L 0,10 L 0,0 z" id="path2972"/>
    </marker>
    <inkscape:perspective id="perspective2967" inkscape:persp3d-origin="300 : 400 : 1" inkscape:vp_x="-50 : 600 : 1" inkscape:vp_y="0 : 1000 : 0" inkscape:vp_z="700 : 600 : 1" sodipodi:type="inkscape:persp3d"/>
    <marker id="marker3069" markerHeight="3" markerUnits="strokeWidth" markerWidth="4" orient="auto" refX="10" refY="5" viewBox="0 0 10 10">
      <path d="M 10,0 L 0,5 L 10,10 L 10,0 z" id="path3071"/>
    </marker>
    <marker id="marker3065" markerHeight="3" markerUnits="strokeWidth" markerWidth="4" orient="auto" refX="0" refY="5" viewBox="0 0 10 10">
      <path d="M 0,0 L 10,5 L 0,10 L 0,0 z" id="path3067"/>
    </marker>
    <inkscape:perspective id="perspective3062" inkscape:persp3d-origin="300 : 400 : 1" inkscape:vp_x="-50 : 600 : 1" inkscape:vp_y="0 : 1000 : 0" inkscape:vp_z="700 : 600 : 1" sodipodi:type="inkscape:persp3d"/>
  </defs>
  <sodipodi:namedview bordercolor="#666666" borderopacity="1.0" id="base" inkscape:current-layer="layer1" inkscape:cx="143.89985" inkscape:cy="-31.973164" inkscape:document-units="px" inkscape:guide-bbox="true" inkscape:pageopacity="0.0" inkscape:pageshadow="2" inkscape:window-height="713" inkscape:window-width="1024" inkscape:window-x="0" inkscape:window-y="0" inkscape:zoom="1.9964397" pagecolor="#ffffff" showgrid="false" showguides="true">
    <sodipodi:guide id="guide3093" orientation="-0.70710678,0.70710678" position="-116.17232,1113.5541"/>
  </sodipodi:namedview>
  <g id="layer1" inkscape:groupmode="layer" inkscape:label="Calque 1" transform="translate(-193.46257,-600.5847)">
    <g id="g8" transform="translate(193.46257,600.5847)">
      <path d="M 155.932,155.932 L 155.932,0 L 0,0 L 0,155.932 L 155.932,155.932 z" id="path9" style="fill:#000000;stroke:none"/>
      <path d="M 150.83,150.83 L 150.83,5.1011 L 5.1011,5.1011 L 5.1011,150.83 L 150.83,150.83 z" id="path10" style="fill:#ff9900;stroke:none"/>
    </g>
    <path d="M 274.52217,610.17549 C 274.52217,610.20668 275.52217,610.17549 275.61587,610.17549 C 275.05337,613.0817 273.80337,616.4255 274.52217,620.238 C 274.58467,620.613 275.49087,624.113 275.61587,624.5505 C 275.83467,625.5192 277.05337,626.8942 277.39717,627.8005 C 277.86587,629.0192 278.86587,632.4255 279.20967,633.2067 L 280.64717,634.988 C 281.39717,636.1442 281.58467,637.5817 282.08467,638.9567 C 282.11587,638.9255 282.89717,639.2067 283.17837,639.3317 C 283.95967,637.7692 284.36587,636.4255 284.95967,634.6442 C 285.24087,634.6442 285.74087,633.6027 285.92837,633.4465 C 286.30337,634.759 288.14717,639.2067 288.20967,639.3317 C 288.77217,640.2067 288.70967,640.988 289.30337,641.8317 C 289.95967,642.8317 291.24087,643.9255 291.80337,645.0817 C 294.11557,649.8942 295.39757,656.738 295.39757,663.8005 C 296.08457,663.8317 295.67857,664.3317 295.77257,664.8942 L 296.49057,664.8942 C 299.20957,660.613 299.74057,657.6755 299.74057,650.488 C 300.02257,650.8942 300.42857,651.363 300.80357,651.9255 C 301.52257,652.9567 304.24057,660.488 304.39757,661.6442 C 305.36557,667.988 304.30357,675.3317 304.05357,681.4255 C 308.52257,678.613 311.36557,676.8942 317.74057,677.8317 C 317.52257,677.988 317.61557,678.738 317.36557,678.9255 C 316.20957,679.7692 314.39757,680.4567 313.39757,681.4255 C 312.64757,682.2067 312.42857,683.238 311.61557,683.9567 C 310.83457,684.613 309.24057,686.4567 309.08457,686.8317 C 309.08457,686.8317 307.86557,688.9567 307.64757,689.363 C 307.49057,689.613 306.64757,690.113 306.55357,690.4255 C 306.45957,690.8317 305.83457,691.8942 305.83457,691.8942 C 303.80357,698.238 306.70957,704.4257 306.20957,711.3317 C 305.95957,714.5507 304.02257,723.7067 303.33457,726.0817 C 303.30357,726.1757 302.58457,727.9877 302.24057,728.9567 C 302.24057,728.9567 301.05357,731.2687 300.45957,732.5507 C 300.45957,732.5507 299.52257,734.1437 299.02257,735.0817 L 293.61557,741.2067 C 293.61557,741.2067 291.58467,743.0507 291.08467,743.3627 C 290.58467,743.6757 288.74087,745.1757 288.20967,745.5187 C 287.14717,746.2067 282.14717,748.7377 280.64717,749.1127 C 279.80337,749.3317 277.39717,749.8317 277.39717,749.8317 C 276.30337,750.1437 272.74087,750.5507 272.74087,750.5507 C 270.80337,750.9567 266.67837,751.0817 264.80337,750.5507 C 264.80337,750.5507 261.83467,749.9877 260.83467,749.8317 C 260.20967,749.7377 257.83467,749.1127 256.89717,748.7687 C 256.89717,748.7687 255.27217,748.2687 254.74087,748.0507 C 254.05337,747.7687 250.52217,746.0187 249.67837,745.5187 C 248.36587,744.7067 244.77217,741.6127 244.30337,741.2067 C 243.74087,740.7067 242.11587,738.6757 242.11587,738.6757 C 241.70967,738.5187 239.89717,736.5817 239.61587,736.1757 C 239.24087,735.6127 237.70967,732.8007 237.45967,732.2067 C 236.89717,730.9877 235.20967,727.2377 234.92837,726.4257 C 233.99087,723.9257 233.33467,719.8317 233.11587,717.0817 C 233.05337,716.1437 233.61587,715.3317 233.11587,713.8317 C 232.99087,713.4877 231.86587,712.7377 231.67837,712.3937 C 231.42837,711.8937 229.92837,707.9567 229.89717,707.7067 C 229.45967,705.5817 229.27217,699.9255 229.89717,697.6442 C 229.89717,697.6442 230.20967,694.4567 230.24087,693.6755 C 230.30337,692.1442 230.99087,688.9567 230.61587,686.8317 C 230.61587,686.8317 229.92837,684.363 229.52217,683.238 C 229.33467,682.6755 227.36587,679.6442 227.36587,679.6442 C 226.86587,678.6755 226.92837,677.9567 226.30337,677.113 C 225.92837,676.6442 224.42837,674.5192 224.11587,673.8942 C 225.33467,673.9255 227.05337,673.613 228.80337,674.238 C 229.80337,674.5817 230.78237,674.884 231.59487,675.4465 C 232.31407,675.884 233.05337,677.113 233.83467,677.488 C 233.83467,677.488 235.36587,679.7692 235.64717,679.988 C 236.17837,680.3942 236.55337,679.9567 237.08467,680.363 C 237.36587,679.738 237.58467,679.2692 238.17837,678.9255 C 238.74087,678.5505 238.52217,677.8317 238.52217,677.8317 C 238.99087,675.8317 238.77217,674.363 239.24087,672.8005 C 240.24087,669.488 242.24087,664.2067 240.67837,659.113 C 240.61587,658.8942 240.14317,657.5788 239.95967,657.3317 C 238.92837,655.9465 237.34487,653.342 237.09487,651.7795 C 237.53237,651.842 239.05337,651.7067 239.95967,651.9255 C 240.70967,652.0817 243.30337,653.7692 243.92837,654.0817 C 244.89717,654.5505 246.11587,657.1442 246.45967,657.3317 L 248.24087,659.113 C 250.27217,660.0505 250.20967,658.8317 250.77217,658.3942 L 252.20967,657.3317 C 253.20967,655.1442 252.70967,647.1755 252.20967,644.7067 C 252.20967,644.7067 251.67837,642.363 251.49087,641.8317 C 251.49087,641.8317 250.77217,640.7692 250.39717,640.0505 C 250.30337,639.8005 249.33467,638.113 249.33467,637.8942 C 249.20967,637.8005 248.45967,636.238 248.24087,635.7067 C 248.14717,635.488 247.20967,634.3942 247.17837,634.2692 C 246.64717,633.113 246.83467,632.613 246.45967,631.3942 C 249.67837,630.363 254.17837,631.613 257.42837,633.863 C 257.42837,633.863 260.77217,637.0192 261.42837,638.613 C 261.52117,638.8386 263.49087,641.8317 263.74087,641.8317 C 263.74087,641.8317 263.99087,641.113 264.08467,641.113 C 263.80337,637.4567 262.86587,630.738 263.02217,627.8005 C 263.14717,624.9567 264.14717,619.1442 264.45967,618.4255 C 264.45967,618.4255 268.08467,613.363 268.17837,613.113 C 268.17837,613.0505 273.70967,610.738 274.52217,610.17549 z M 270.55337,661.988 C 270.42837,663.0505 269.58467,665.2067 269.49087,665.9567 C 268.80337,670.7067 269.05337,675.8317 269.67837,680.363 C 272.42837,680.6755 275.05337,681.3317 277.55337,681.363 C 277.83467,679.3942 277.99087,678.113 277.39717,676.0505 C 277.30337,675.6442 276.17837,672.5192 275.61587,671.363 C 275.49087,671.1442 273.49087,665.9567 272.74087,664.5192 C 272.30337,663.6755 271.05337,662.8005 270.55337,661.988 z M 257.92837,671.988 C 256.64717,675.3942 256.55337,678.5505 256.89717,682.8942 C 259.05337,682.113 259.80337,681.738 261.55337,681.4255 C 261.05337,678.0192 260.17837,676.3005 259.05337,673.8942 C 258.86587,673.8942 258.08467,672.0817 257.92837,671.988 z M 287.42837,672.488 C 287.05337,673.6442 284.99087,678.0817 284.95967,678.2067 C 284.33467,679.863 283.52217,683.238 283.52217,683.238 C 283.39717,684.2067 284.42837,683.3942 284.30337,684.363 C 284.83467,684.5505 285.39717,685.0192 286.05337,685.3942 C 286.39717,685.5817 287.52217,686.0192 287.80337,686.113 C 288.30337,686.3005 288.77217,686.6442 289.30337,686.8317 C 289.89717,684.9567 290.80337,683.0817 290.36587,680.363 C 290.27217,679.863 289.49087,676.9255 289.30337,676.3942 C 289.30337,676.3942 288.74087,675.1755 288.55337,674.9567 C 288.17837,674.4567 287.95967,672.8942 287.42837,672.488 z M 245.30337,679.9567 C 245.05337,680.863 243.95967,684.6755 244.14717,685.9567 C 244.83467,690.2692 246.26187,687.2795 247.59487,685.9465 C 247.46987,685.1965 247.86587,685.1755 247.26187,684.113 C 246.93617,683.5402 246.80337,682.988 246.67837,682.7067 C 246.49087,682.3005 245.52217,680.3005 245.30337,679.9567 z M 267.67837,687.9255 C 265.20967,688.0192 258.24087,690.0505 256.52217,691.1755 C 256.49087,691.1755 253.36587,692.7692 252.20967,693.6755 C 251.70967,694.0505 249.27217,696.1755 248.61587,696.9255 C 248.20967,697.3317 247.17837,698.7067 247.17837,698.7067 C 246.99087,699.113 246.45967,699.8005 246.45967,699.8005 C 245.52217,701.5187 243.02217,706.4257 242.83467,706.9877 C 242.49087,708.0817 241.83467,711.0507 241.77217,711.6757 C 241.39717,714.2687 241.55337,718.8937 242.11587,721.0507 C 242.11587,721.0507 242.64717,723.2377 242.83467,723.9257 C 243.02217,724.5507 244.14717,727.2377 244.30337,727.5187 C 244.42837,727.8007 245.70967,729.8007 246.08467,730.7687 C 246.08467,730.7687 247.24087,732.4877 247.89717,733.2687 C 247.89717,733.2687 248.77217,734.2067 248.95967,734.3627 C 249.45967,734.7377 251.64717,737.1437 252.20967,737.6127 C 253.08467,738.3007 256.58467,740.3317 256.89717,740.4877 C 258.27217,741.1127 263.24087,742.6127 263.36587,742.6437 C 266.02217,743.2687 270.58467,743.2067 273.45967,742.6437 C 274.05337,742.5187 277.95967,741.3937 278.83467,741.2067 C 279.67837,740.9877 283.20967,739.3007 284.24087,738.6757 C 284.95967,738.2377 287.11587,736.3627 287.49087,736.1757 C 287.67837,736.0507 288.27217,735.2067 288.55337,735.0817 C 288.58467,735.0507 290.24087,733.2687 290.36587,733.2687 C 291.17837,732.0817 294.20957,727.6757 294.67857,726.4257 C 295.08457,725.3937 296.36557,719.8627 296.36557,719.8627 C 296.74057,717.8007 296.70957,716.8627 296.83457,715.9877 C 297.17857,713.4877 295.83457,706.2687 294.67857,703.7687 C 294.36557,703.0507 293.11587,700.8627 292.89717,700.5192 C 292.83467,700.4255 291.36587,698.6442 291.08467,697.988 C 291.08467,697.988 290.55337,697.1442 290.36587,696.9255 C 290.36587,696.9255 287.83467,694.863 287.11587,694.3942 C 286.55337,694.0192 285.14717,692.7692 284.95967,692.613 C 283.89717,691.6442 280.20967,690.2067 279.92837,690.0817 C 278.42837,689.4255 274.39717,688.3317 274.17837,688.2692 C 272.20967,687.863 269.30337,687.8317 267.67837,687.9255 z" id="path11" style="fill:#000000;stroke:none"/>
  </g>
</svg>

<svg xmlns="http://www.w3.org/2000/svg" viewBox="0 0 155.93 155.93"><g transform="translate(-193.46-600.58)"><g transform="translate(193.46 600.58)"><path d="m155.93 155.93v-155.93h-155.93v155.93h155.93"/><path d="m150.83 150.83v-145.73h-145.73v145.73h145.73" fill="#f90"/></g><path d="m274.52 610.18c0 .031 1 0 1.094 0-.563 2.906-1.813 6.25-1.094 10.06.063.375.969 3.875 1.094 4.313.219.969 1.438 2.344 1.781 3.25.469 1.219 1.469 4.625 1.813 5.406l1.438 1.781c.75 1.156.938 2.594 1.438 3.969.031-.031.813.25 1.094.375.781-1.563 1.188-2.906 1.781-4.688.281 0 .781-1.041.969-1.198.375 1.313 2.219 5.76 2.281 5.885.563.875.5 1.656 1.094 2.5.656 1 1.938 2.094 2.5 3.25 2.312 4.813 3.594 11.656 3.594 18.719.687.031.281.531.375 1.094h.718c2.719-4.281 3.25-7.219 3.25-14.406.282.406.688.875 1.063 1.438.719 1.031 3.437 8.563 3.594 9.719.968 6.344-.094 13.688-.344 19.781 4.469-2.813 7.312-4.531 13.687-3.594-.218.156-.125.906-.375 1.094-1.156.844-2.968 1.531-3.968 2.5-.75.781-.969 1.813-1.782 2.531-.781.656-2.375 2.5-2.531 2.875 0 0-1.219 2.125-1.437 2.531-.157.25-1 .75-1.094 1.063-.094.406-.719 1.469-.719 1.469-2.031 6.344.875 12.532.375 19.438-.25 3.219-2.187 12.375-2.875 14.75-.031.094-.75 1.906-1.094 2.875 0 0-1.187 2.312-1.781 3.594 0 0-.937 1.593-1.437 2.531l-5.407 6.125c0 0-2.031 1.844-2.531 2.156-.5.313-2.344 1.813-2.875 2.156-1.063.688-6.06 3.219-7.563 3.594-.844.219-3.25.719-3.25.719-1.094.312-4.656.719-4.656.719-1.938.406-6.06.531-7.938 0 0 0-2.969-.563-3.969-.719-.625-.094-3-.719-3.938-1.063 0 0-1.625-.5-2.156-.718-.688-.282-4.219-2.032-5.063-2.532-1.313-.812-4.906-3.906-5.375-4.312-.563-.5-2.188-2.531-2.188-2.531-.406-.157-2.219-2.094-2.5-2.5-.375-.563-1.906-3.375-2.156-3.969-.563-1.219-2.25-4.969-2.531-5.781-.938-2.5-1.594-6.594-1.813-9.344-.063-.938.5-1.75 0-3.25-.125-.344-1.25-1.094-1.438-1.438-.25-.5-1.75-4.437-1.781-4.687-.438-2.125-.625-7.781 0-10.06 0 0 .313-3.188.344-3.969.063-1.531.75-4.719.375-6.844 0 0-.688-2.469-1.094-3.594-.188-.563-2.156-3.594-2.156-3.594-.5-.969-.438-1.688-1.063-2.531-.375-.469-1.875-2.594-2.188-3.219 1.219.031 2.938-.281 4.688.344 1 .344 1.979.646 2.791 1.208.719.438 1.459 1.667 2.24 2.042 0 0 1.531 2.281 1.813 2.5.531.406.906-.031 1.438.375.281-.625.5-1.094 1.094-1.438.563-.375.344-1.094.344-1.094.469-2 .25-3.469.719-5.03 1-3.313 3-8.594 1.438-13.688-.063-.219-.535-1.534-.719-1.781-1.031-1.385-2.615-3.99-2.865-5.552.438.063 1.959-.073 2.865.146.75.156 3.344 1.844 3.969 2.156.969.469 2.188 3.063 2.531 3.25l1.781 1.781c2.031.938 1.969-.281 2.531-.719l1.438-1.063c1-2.188.5-10.156 0-12.625 0 0-.531-2.344-.719-2.875 0 0-.719-1.063-1.094-1.781-.094-.25-1.063-1.938-1.063-2.156-.125-.094-.875-1.656-1.094-2.188-.094-.219-1.031-1.313-1.063-1.438-.531-1.156-.344-1.656-.719-2.875 3.219-1.031 7.719.219 10.969 2.469 0 0 3.344 3.156 4 4.75.093.226 2.063 3.219 2.313 3.219 0 0 .25-.719.344-.719-.281-3.656-1.219-10.375-1.063-13.313.125-2.844 1.125-8.656 1.438-9.375 0 0 3.625-5.063 3.719-5.313 0-.063 5.531-2.375 6.344-2.938m-3.969 51.813c-.125 1.063-.969 3.219-1.063 3.969-.688 4.75-.438 9.875.188 14.406 2.75.313 5.375.969 7.875 1 .281-1.969.438-3.25-.156-5.313-.094-.406-1.219-3.531-1.781-4.688-.125-.219-2.125-5.406-2.875-6.844-.438-.844-1.688-1.719-2.188-2.531m-12.625 10c-1.281 3.406-1.375 6.563-1.031 10.906 2.156-.781 2.906-1.156 4.656-1.469-.5-3.406-1.375-5.125-2.5-7.531-.188 0-.969-1.813-1.125-1.906m29.5.5c-.375 1.156-2.438 5.594-2.469 5.719-.625 1.656-1.438 5.03-1.438 5.03-.125.969.906.156.781 1.125.531.188 1.094.656 1.75 1.031.344.188 1.469.625 1.75.719.5.188.969.531 1.5.719.594-1.875 1.5-3.75 1.063-6.469-.094-.5-.875-3.438-1.063-3.969 0 0-.563-1.219-.75-1.438-.375-.5-.594-2.063-1.125-2.469m-42.12 7.469c-.25.906-1.344 4.719-1.156 6 .688 4.313 2.115 1.323 3.448-.001-.125-.75.271-.771-.333-1.833-.326-.573-.458-1.125-.583-1.406-.188-.406-1.156-2.406-1.375-2.75m22.375 7.969c-2.469.094-9.438 2.125-11.156 3.25-.031 0-3.156 1.594-4.313 2.5-.5.375-2.938 2.5-3.594 3.25-.406.406-1.438 1.781-1.438 1.781-.188.406-.719 1.094-.719 1.094-.938 1.718-3.438 6.625-3.625 7.187-.344 1.094-1 4.063-1.063 4.688-.375 2.593-.219 7.218.344 9.375 0 0 .531 2.187.719 2.875.188.625 1.313 3.312 1.469 3.593.125.282 1.406 2.282 1.781 3.25 0 0 1.156 1.719 1.813 2.5 0 0 .875.938 1.063 1.094.5.375 2.688 2.781 3.25 3.25.875.688 4.375 2.719 4.688 2.875 1.375.625 6.344 2.125 6.469 2.156 2.656.625 7.219.563 10.09 0 .594-.125 4.5-1.25 5.375-1.437.844-.219 4.375-1.906 5.406-2.531.719-.438 2.875-2.313 3.25-2.5.188-.125.781-.969 1.063-1.094.031-.031 1.688-1.813 1.813-1.813.813-1.187 3.844-5.593 4.313-6.843.406-1.032 1.687-6.563 1.687-6.563.375-2.062.344-3 .469-3.875.344-2.5-1-9.719-2.156-12.219-.313-.718-1.563-2.906-1.781-3.25-.063-.094-1.531-1.875-1.813-2.531 0 0-.531-.844-.719-1.063 0 0-2.531-2.063-3.25-2.531-.563-.375-1.969-1.625-2.156-1.781-1.063-.969-4.75-2.406-5.03-2.531-1.5-.656-5.531-1.75-5.75-1.813-1.969-.406-4.875-.438-6.5-.344"/></g></svg>
